X: 123
M: 2/2
L: 1/8
K: D
!segno!F4 |\
E2D2 EFG2 | G2F2 B4 | A2GF EDEF | D2A,2 F4 |\
E2D2EFG2 | G2F2 B4 | A2GF EDEF | HD4 |]
"2.f."F2G2 |\

